X: 19
M: 2/4
L: 1/16
K: G
(GA) |\
"G"B2B2 BAGA | B2B2 B2(GA) | B2B2 c2B2 | B2"D7"A2 A2(FG |
"G"D6 (GA) | B2A2 GD3 | "C"[E6C6] (GA) | "D7"c2B2 AG3 |
[D6B,6] (GA) | B2A2 GD3 | "C"[E6C6] (AB) | c2B2 A2G2 |
"D7"F3E F2G2 | A3A c3c | B3c B2A2 | "G"G6 |]



